build/img/icon/advantages-3.svg

<?xml version="1.0" encoding="UTF-8"?> <svg xmlns="http://www.w3.org/2000/svg" width="512" height="512" viewBox="0 0 512 512" fill="none"> <g clip-path="url(#clip0)"> <path d="M501.333 512H10.6667C4.77867 512 0 507.221 0 501.333C0 495.445 4.77867 490.667 10.6667 490.667H501.333C507.221 490.667 512 495.445 512 501.333C512 507.221 507.221 512 501.333 512Z" fill="#2A47B6"></path> <path d="M138.667 512H32C26.112 512 21.3333 507.221 21.3333 501.333V384C21.3333 372.245 30.8906 362.667 42.6666 362.667H128C139.776 362.667 149.333 372.245 149.333 384V501.333C149.333 507.221 144.555 512 138.667 512ZM42.6666 490.667H128V384H42.6666V490.667Z" fill="#2A47B6"></path> <path d="M309.333 512H202.667C196.779 512 192 507.221 192 501.333V256C192 244.245 201.557 234.667 213.333 234.667H298.667C310.443 234.667 320 244.245 320 256V501.333C320 507.221 315.221 512 309.333 512ZM213.333 490.667H298.667V256H213.333V490.667Z" fill="#2A47B6"></path> <path d="M480 512H373.333C367.445 512 362.667 507.221 362.667 501.333V298.667C362.667 286.912 372.224 277.333 384 277.333H469.333C481.109 277.333 490.667 286.912 490.667 298.667V501.333C490.667 507.221 485.888 512 480 512ZM384 490.667H469.333V298.667H384V490.667Z" fill="#2A47B6"></path> <path d="M53.3333 234.667C50.6027 234.667 47.872 233.621 45.7813 231.552C41.6213 227.392 41.6213 220.629 45.7813 216.469L152.448 109.803C155.093 107.157 158.912 106.048 162.581 106.987L327.403 148.181L451.136 24.448C455.296 20.288 462.059 20.288 466.219 24.448C470.379 28.608 470.379 35.3707 466.219 39.5307L338.219 167.531C335.595 170.176 331.755 171.243 328.085 170.325L163.264 129.152L60.864 231.552C58.7947 233.621 56.064 234.667 53.3333 234.667Z" fill="#2A47B6"></path> <path d="M458.667 128C452.779 128 448 123.221 448 117.333V42.6667H373.333C367.445 42.6667 362.667 37.888 362.667 32C362.667 26.112 367.445 21.3334 373.333 21.3334H458.667C464.555 21.3334 469.333 26.112 469.333 32V117.333C469.333 123.221 464.555 128 458.667 128Z" fill="#2A47B6"></path> </g> <defs> <clipPath id="clip0"> <rect width="512" height="512" fill="white"></rect> </clipPath> </defs> </svg>

<svg xmlns="http://www.w3.org/2000/svg" width="512" height="512" fill="none"><g clip-path="url(#clip0)" fill="#2A47B6"><path d="M501.333 512H10.667C4.779 512 0 507.221 0 501.333s4.779-10.666 10.667-10.666h490.666c5.888 0 10.667 4.778 10.667 10.666 0 5.888-4.779 10.667-10.667 10.667z"/><path d="M138.667 512H32c-5.888 0-10.667-4.779-10.667-10.667V384c0-11.755 9.558-21.333 21.334-21.333H128c11.776 0 21.333 9.578 21.333 21.333v117.333c0 5.888-4.778 10.667-10.666 10.667zm-96-21.333H128V384H42.667v106.667zM309.333 512H202.667c-5.888 0-10.667-4.779-10.667-10.667V256c0-11.755 9.557-21.333 21.333-21.333h85.334c11.776 0 21.333 9.578 21.333 21.333v245.333c0 5.888-4.779 10.667-10.667 10.667zm-96-21.333h85.334V256h-85.334v234.667zM480 512H373.333c-5.888 0-10.666-4.779-10.666-10.667V298.667c0-11.755 9.557-21.334 21.333-21.334h85.333c11.776 0 21.334 9.579 21.334 21.334v202.666c0 5.888-4.779 10.667-10.667 10.667zm-96-21.333h85.333v-192H384v192zm-330.667-256c-2.73 0-5.461-1.046-7.552-3.115-4.16-4.16-4.16-10.923 0-15.083l106.667-106.666c2.645-2.646 6.464-3.755 10.133-2.816l164.822 41.194L451.136 24.448c4.16-4.16 10.923-4.16 15.083 0s4.16 10.923 0 15.083l-128 128c-2.624 2.645-6.464 3.712-10.134 2.794l-164.821-41.173-102.4 102.4a10.63 10.63 0 01-7.53 3.115z"/><path d="M458.667 128c-5.888 0-10.667-4.779-10.667-10.667V42.667h-74.667c-5.888 0-10.666-4.779-10.666-10.667s4.778-10.667 10.666-10.667h85.334c5.888 0 10.666 4.779 10.666 10.667v85.333c0 5.888-4.778 10.667-10.666 10.667z"/></g><defs><clipPath id="clip0"><path fill="#fff" d="M0 0h512v512H0z"/></clipPath></defs></svg>
